X:17
T:Martin in the Bracken
M:4/4
L:1/8
R:Reel
C:Gris Sanderson
Q:450
N:I visited the Isle of Gigha a few summers ago where I met 
N:some fantastic people - and animals. Les, who was in charge 
N:of the water works at the time had an amazing cat called  
N:Martin who joined us on a five-mile walk along the coast 
N:one day. Sometimes all we could see of him was the tip of his 
N:black tail sticking up through the bracken. All we could hear 
N:of him were his meows, which I have put into the tune. 
K:Ddor
D2dc EedE|D2dc EedE|D2dc Bdce|fage BdcA:|
|:D2dc FAGB|D2dc FAGE|D2dc FAGe|1fage BdcA:|2fage Bdef||
|:abg2- gGAG|FAEA FADF|G2ab g2ge|1fage Bdef:|2fage BdcA||
